frontend/public/logo.svg

<svg width="125" height="68" viewBox="0 0 125 68" fill="none" xmlns="http://www.w3.org/2000/svg">
<g clip-path="url(#clip0_1503_9594)">
<path d="M46.6484 53.1405V39.3722H50.779L50.9718 42.3461C51.3205 41.318 51.8345 40.5195 52.5137 39.9504C53.2113 39.3814 54.0926 39.0969 55.1573 39.0969C55.506 39.0969 55.7997 39.1243 56.0385 39.1795C56.2954 39.2345 56.4973 39.308 56.6443 39.3998L56.1762 43.2549C55.9927 43.1815 55.7539 43.1263 55.4602 43.0897C55.1849 43.0345 54.8452 43.0071 54.4413 43.0071C53.8907 43.0071 53.3766 43.1263 52.8994 43.365C52.4219 43.6038 52.0364 43.9617 51.7427 44.4389C51.4674 44.898 51.3296 45.4854 51.3296 46.2014V53.1405H46.6484ZM65.0383 53.4159C63.5145 53.4159 62.1927 53.1313 61.0729 52.5623C59.9714 51.9931 59.1178 51.1763 58.512 50.1114C57.9062 49.0467 57.6033 47.7617 57.6033 46.2564C57.6033 44.751 57.9062 43.466 58.512 42.4013C59.1178 41.3364 59.9624 40.5195 61.0455 39.9504C62.1469 39.3814 63.4044 39.0969 64.8179 39.0969C66.2681 39.0969 67.4982 39.3814 68.5079 39.9504C69.536 40.5013 70.3161 41.2723 70.8484 42.2636C71.3808 43.2365 71.6469 44.3563 71.6469 45.623C71.6469 45.9535 71.6379 46.284 71.6195 46.6143C71.6011 46.9448 71.5735 47.2201 71.537 47.4404H60.6324V44.9346H69.4716L67.2412 45.7883C67.2412 44.6868 67.0393 43.8423 66.6354 43.2549C66.2499 42.6674 65.6441 42.3737 64.8179 42.3737C64.2305 42.3737 63.7257 42.5115 63.3034 42.7868C62.8995 43.0621 62.5874 43.4936 62.3671 44.081C62.1651 44.6684 62.0642 45.421 62.0642 46.339C62.0642 47.2385 62.1835 47.9729 62.4223 48.5419C62.661 49.0927 63.0005 49.4966 63.4412 49.7535C63.8816 49.9923 64.4141 50.1114 65.0383 50.1114C65.7359 50.1114 66.2865 49.9739 66.6904 49.6984C67.1127 49.423 67.4248 49.0375 67.6267 48.5419L71.3716 49.7811C71.1147 50.5705 70.6648 51.2405 70.0224 51.7913C69.3982 52.3236 68.6456 52.7275 67.7643 53.0028C66.9015 53.2783 65.9928 53.4159 65.0383 53.4159ZM79.3325 53.4159C78.1944 53.4159 77.1939 53.1405 76.331 52.5899C75.4866 52.0207 74.8256 51.2037 74.3484 50.139C73.8895 49.0743 73.66 47.7985 73.66 46.3114C73.66 44.7694 73.8987 43.466 74.376 42.4013C74.8716 41.3364 75.5508 40.5195 76.4136 39.9504C77.2949 39.3814 78.3044 39.0969 79.4427 39.0969C80.6911 39.0969 81.6916 39.4824 82.4442 40.2534C83.2151 41.0061 83.7108 41.9698 83.9311 43.1447L83.4905 43.7229V33.5343H88.1719V53.1405H83.9863L83.6834 48.4593L84.2341 48.8724C84.1239 49.7903 83.8394 50.5889 83.3805 51.2681C82.9398 51.9473 82.3708 52.4797 81.6732 52.8652C80.9938 53.2323 80.2136 53.4159 79.3325 53.4159ZM80.9572 49.9739C81.4897 49.9739 81.9393 49.8361 82.3064 49.5608C82.6919 49.2671 82.9858 48.8356 83.1878 48.2666C83.3895 47.6976 83.4905 47 83.4905 46.1738C83.4905 45.4028 83.3895 44.751 83.1878 44.2186C83.004 43.6679 82.7195 43.2549 82.334 42.9795C81.9669 42.6858 81.5171 42.5389 80.9848 42.5389C80.1771 42.5389 79.5344 42.8418 79.0572 43.4476C78.5983 44.035 78.3688 44.9714 78.3688 46.2564C78.3688 47.5414 78.5983 48.4869 79.0572 49.0927C79.516 49.6802 80.1495 49.9739 80.9572 49.9739ZM93.8706 37.7751C92.916 37.7751 92.2185 37.6007 91.7778 37.2518C91.3555 36.8848 91.1444 36.3157 91.1444 35.5445C91.1444 34.7552 91.3555 34.1862 91.7778 33.8373C92.2185 33.4702 92.916 33.2866 93.8706 33.2866C94.8069 33.2866 95.4953 33.4702 95.9357 33.8373C96.3764 34.1862 96.5968 34.7552 96.5968 35.5445C96.5968 36.3157 96.3764 36.8848 95.9357 37.2518C95.4953 37.6007 94.8069 37.7751 93.8706 37.7751ZM96.2113 39.3722V53.1405H91.5301V39.3722H96.2113ZM114 38.6286H104.61V42.4839H112.1V46.1462H104.61V53.1405H99.874V34.9663H114V38.6286Z" fill="url(#paint0_linear_1503_9594)"/>
<path d="M118.746 37.7751C117.791 37.7751 117.094 37.6007 116.653 37.2518C116.231 36.8848 116.02 36.3157 116.02 35.5445C116.02 34.7552 116.231 34.1862 116.653 33.8373C117.094 33.4702 117.791 33.2866 118.746 33.2866C119.682 33.2866 120.37 33.4702 120.811 33.8373C121.252 34.1862 121.472 34.7552 121.472 35.5445C121.472 36.3157 121.252 36.8848 120.811 37.2518C120.37 37.6007 119.682 37.7751 118.746 37.7751ZM121.086 39.3722V53.1405H116.405V39.3722H121.086Z" fill="#37B7C3"/>
<path d="M14.9888 0.458984V52.0027L0 66.9911V15.4478L14.9888 0.458984Z" fill="#37B7C3"/>
<path d="M29.9793 30.4385V45.4256H0L14.9872 30.4385H29.9793Z" fill="url(#paint1_linear_1503_9594)"/>
<path d="M44.9637 15.4492V30.4363L29.9766 45.4235V0.457031L44.9637 15.4492Z" fill="url(#paint2_linear_1503_9594)"/>
<path d="M29.9793 0.457031V15.4492H0L14.9872 0.457031H29.9793Z" fill="url(#paint3_linear_1503_9594)"/>
<path d="M0 18.7367V15.4478H14.9888L0 18.7367Z" fill="url(#paint4_linear_1503_9594)"/>
<path d="M0 48.7121V45.4229H14.9888L0 48.7121Z" fill="url(#paint5_linear_1503_9594)"/>
<path d="M29.9761 0.454102H14.989L13.9531 1.48998H28.9458L43.9331 16.4827V31.4643L44.9634 30.434V15.4468L29.9761 0.454102ZM14.989 30.434V16.4827H13.9531V31.4698H28.9458V30.434H14.989ZM13.9531 46.457V53.036L14.989 52.0001V46.457H13.9531Z" fill="white"/>
</g>
<defs>
<linearGradient id="paint0_linear_1503_9594" x1="55.9029" y1="42.573" x2="121.155" y2="42.573" gradientUnits="userSpaceOnUse">
<stop stop-color="#37B7C3"/>
<stop offset="1" stop-color="white"/>
</linearGradient>
<linearGradient id="paint1_linear_1503_9594" x1="30.1525" y1="37.9319" x2="0.0985173" y2="37.9319" gradientUnits="userSpaceOnUse">
<stop stop-color="#1A4E6F"/>
<stop offset="0.3" stop-color="#088395"/>
</linearGradient>
<linearGradient id="paint2_linear_1503_9594" x1="37.47" y1="0.719417" x2="37.47" y2="68.6329" gradientUnits="userSpaceOnUse">
<stop stop-color="#088395"/>
<stop offset="1" stop-color="#1A4E6F"/>
</linearGradient>
<linearGradient id="paint3_linear_1503_9594" x1="0.000220399" y1="7.95308" x2="29.9791" y2="7.95308" gradientUnits="userSpaceOnUse">
<stop offset="0.7" stop-color="#37B7C3"/>
<stop offset="1" stop-color="#071952"/>
</linearGradient>
<linearGradient id="paint4_linear_1503_9594" x1="7.49447" y1="15.4401" x2="7.49447" y2="18.7159" gradientUnits="userSpaceOnUse">
<stop stop-color="#1F1E21"/>
<stop offset="1" stop-color="#1F1E21" stop-opacity="0"/>
</linearGradient>
<linearGradient id="paint5_linear_1503_9594" x1="7.49447" y1="45.5669" x2="7.49447" y2="48.844" gradientUnits="userSpaceOnUse">
<stop stop-color="#1F1E21"/>
<stop offset="1" stop-color="#1F1E21" stop-opacity="0"/>
</linearGradient>
<clipPath id="clip0_1503_9594">
<rect width="124.68" height="67.4497" fill="white"/>
</clipPath>
</defs>
</svg>

<svg width="125" height="68" viewBox="0 0 125 68" fill="none" xmlns="http://www.w3.org/2000/svg"><g clip-path="url(#a)"><path d="M46.648 53.14V39.372h4.13l.193 2.974c.349-1.028.863-1.827 1.542-2.396.698-.569 1.579-.853 2.644-.853.349 0 .642.027.881.082.257.055.459.129.606.221l-.468 3.855a3.3 3.3 0 0 0-.634-.143 4.5 4.5 0 0 0-.634-.028c-.55 0-1.065.12-1.542.358-.477.239-.863.597-1.156 1.074-.276.459-.413 1.047-.413 1.763v6.939h-4.681Zm18.39.276c-1.524 0-2.846-.285-3.966-.854-1.101-.569-1.955-1.386-2.56-2.451-.607-1.065-.91-2.35-.91-3.855 0-1.505.303-2.79.91-3.855.605-1.065 1.45-1.882 2.532-2.451 1.101-.569 2.359-.854 3.772-.854 1.45 0 2.68.285 3.69.854 1.028.55 1.808 1.321 2.34 2.313.533.972.799 2.092.799 3.359 0 .33-.009.661-.027.991-.019.33-.046.606-.083.826H60.632v-2.506h8.84l-2.23.854c0-1.102-.202-1.946-.606-2.534-.385-.587-.991-.881-1.817-.881-.588 0-1.093.138-1.515.413-.404.276-.716.707-.936 1.295-.202.587-.303 1.34-.303 2.258 0 .899.12 1.633.358 2.202.239.55.579.954 1.02 1.211.44.239.972.358 1.596.358.698 0 1.248-.138 1.652-.413.422-.275.734-.66.936-1.156l3.745 1.239c-.257.79-.707 1.46-1.349 2.01-.624.533-1.377.937-2.258 1.212-.863.276-1.772.413-2.726.413Zm13.934 0c-1.138 0-2.139-.275-3.002-.826-.844-.569-1.505-1.386-1.982-2.451-.459-1.064-.688-2.34-.688-3.827 0-1.542.238-2.845.716-3.91.495-1.064 1.174-1.881 2.037-2.45.881-.569 1.891-.854 3.029-.854 1.248 0 2.249.386 3.001 1.157.771.752 1.267 1.716 1.487 2.891l-.44.578V33.534h4.681v19.606h-4.186l-.303-4.682.551.413c-.11.918-.395 1.716-.854 2.396-.44.679-1.01 1.211-1.707 1.597-.68.367-1.46.55-2.341.55Zm1.624-3.442c.533 0 .983-.138 1.35-.413.385-.294.679-.725.881-1.294.202-.569.303-1.267.303-2.093 0-.771-.101-1.423-.303-1.955-.184-.55-.468-.963-.853-1.239-.367-.294-.817-.44-1.35-.44-.807 0-1.45.303-1.927.909-.459.587-.688 1.523-.688 2.808 0 1.285.229 2.23.688 2.836.459.587 1.092.881 1.9.881Zm12.913-15.199c-.954 0-1.652-.174-2.093-.523-.422-.367-.633-.936-.633-1.707 0-.789.211-1.358.633-1.707.441-.367 1.139-.55 2.093-.55.937 0 1.625.183 2.065.55.441.349.661.918.661 1.707 0 .771-.22 1.34-.661 1.707-.44.349-1.128.523-2.065.523Zm2.34 1.597v13.768h-4.681V36.372h4.681Zm18.489-.744h-9.39v3.855h7.49v3.662h-7.49v6.994h-4.736V34.966H114V35.628Z" fill="url(#b)"/><path d="M118.746 37.775c-.955 0-1.652-.174-2.093-.523-.422-.367-.633-.936-.633-1.707 0-.789.211-1.358.633-1.707.441-.367 1.138-.55 2.093-.55.936 0 1.624.183 2.065.55.44.349.661.918.661 1.707 0 .771-.221 1.34-.661 1.707-.441.349-1.129.523-2.065.523Zm2.34 1.597v13.768h-4.681V39.372h4.681Z" fill="#37B7C3"/><path d="M14.989.459V52.003L0 66.991V15.448L14.989.459Z" fill="#37B7C3"/><path d="M29.979 30.439v14.987H0L14.987 30.439h14.992Z" fill="url(#c)"/><path d="M44.964 15.449V30.436L29.977 45.424V.457l14.987 14.992Z" fill="url(#d)"/><path d="M29.979.457v14.992H0L14.987.457h14.992Z" fill="url(#e)"/><path d="M0 18.737v-3.289h14.989L0 18.737Z" fill="url(#f)"/><path d="M0 48.712v-3.289h14.989L0 48.712Z" fill="url(#g)"/><path d="M29.976.454H14.989l-1.036 1.036h14.993L43.933 16.483v14.981l1.03-1.03V15.447L29.976.454ZM14.989 30.434V16.483h-1.036v14.987h14.993v-1.036H14.989Zm-1.036 16.023v6.579l1.036-1.036v-5.543h-1.036Z" fill="#fff"/></g><defs><linearGradient id="b" x1="55.903" y1="42.573" x2="121.155" y2="42.573" gradientUnits="userSpaceOnUse"><stop stop-color="#37B7C3"/><stop offset="1" stop-color="#fff"/></linearGradient><linearGradient id="c" x1="30.153" y1="37.932" x2=".099" y2="37.932" gradientUnits="userSpaceOnUse"><stop stop-color="#1A4E6F"/><stop offset=".3" stop-color="#088395"/></linearGradient><linearGradient id="d" x1="37.47" y1=".719" x2="37.47" y2="68.633" gradientUnits="userSpaceOnUse"><stop stop-color="#088395"/><stop offset="1" stop-color="#1A4E6F"/></linearGradient><linearGradient id="e" x1=".0002" y1="7.953" x2="29.979" y2="7.953" gradientUnits="userSpaceOnUse"><stop offset=".7" stop-color="#37B7C3"/><stop offset="1" stop-color="#071952"/></linearGradient><linearGradient id="f" x1="7.494" y1="15.44" x2="7.494" y2="18.716" gradientUnits="userSpaceOnUse"><stop stop-color="#1F1E21"/><stop offset="1" stop-color="#1F1E21" stop-opacity="0"/></linearGradient><linearGradient id="g" x1="7.494" y1="45.567" x2="7.494" y2="48.844" gradientUnits="userSpaceOnUse"><stop stop-color="#1F1E21"/><stop offset="1" stop-color="#1F1E21" stop-opacity="0"/></linearGradient><clipPath id="a"><rect width="124.68" height="67.45" fill="#fff"/></clipPath></defs></svg>
